X: 1
T: Bruneau's Waltz
C: Philippe Bruneau
R: Waltz
L: 1/8
M: 3/4
K: G
Z: ABC transcription by Verge Roller
r: 32
|: "G" B6 | "D" AB AB AB | "Em" G6 | "Bm" FG FG FG |
"C" E6 | "Bm" FG FG FG | "C" E2 F2 G2 | "D" A2 G2 A2 :|
|: "G" B4 D2 | "C" E4 G2 | "D" FG A2 F2 | "G" D2 GF GA |
"G" B4 D2 | "C" E4 G2 | "D" FG A2 F2 | [1 "G" G2 GF GA :| [2 "G" G6 |]
